X:1
T:I Have Found a Precious Resting Place
T:I Have Found a Precious Resting Place
T:Haldor Lillenas
T:Haldor Lillenas, 1918
T:Public Domain Courtesy of the Cyber Hymnal™
T:Public Domain Courtesy of the Cyber Hymnal™
C:Haldor Lillenas
Z:Public Domain
Z:Courtesy of the Cyber Hymnal™
%%score ( 1 2 ) ( 3 4 )
L:1/8
Q:1/4=110
M:4/4
K:G
V:1 treble 
V:2 treble 
V:3 bass 
V:4 bass 
V:1
 [B,D][B,D][DG][DA] [DB]2 [Ec]2 | [DB]2 [DA]2 [DA]4 | DD[DF][FA] [Fc]2 [Fe]2 | [Ge]2 [Gd]2 [Gd]4 | %4
w: 1.~I have found a pre- cious|rest- ing place|In the shel- ter of re-|deem- ing grace;|
w: 2.~Where shall I the praise of|Christ be- gin?|Gone the hea- vy bur- den|of my sin!|
w: 3.~E- vil shall not here my|soul en- snare;|Ten- der- ly I’m kept with|jeal- ous care.|
w: 4.~Now its heal- ing pow- er|makes me whole;|Through its mer- it Je- sus|saves my soul.|
 DD[DG][DA] [GB]2 [=Fd]2 | [Ed]2 [Ec]2 ([EG]2 [_EA]2) | [DB][DB][DB]G [FA]2 [DF]2 | [DG]6 z2 || %8
w: Here with joy I see my|Sav- ior’s face, *|Un- der the a- ton- ing|blood.|
w: Grace has changed the world I’m|liv- ing in, *|Un- der the a- ton- ing|blood.|
w: Je- sus walks be- side me|ev- ery- where, *|Un- der the a- ton- ing|blood.|
w: Sav- ior, keep me while the|ag- es roll *|Un- der the a- ton- ing|blood.|
"^Refrain" [B,D][B,D][B,G][CA] [DB]2 [Ec]2 | [DB]2 [DA]>[D^G] [DA]4 | DD[DF][FA] [Fc]2 [Fe]2 | %11
w: |||
w: |||
w: Un- der the a- ton- ing|blood of the Lamb,|Un- der the a- ton- ing|
w: |||
 [Ge]2 [Gd]>[G^c] [Gd]4 | DD[DG][GB] [Gd]2 [GB]2 | [EA][E^G][EA][EB] [Ec]2 [CE]2 | %14
w: |||
w: |||
w: blood of the Lamb,|Safe- ly I am hid- ing,|con- stant- ly a- bid- ing,|
w: |||
 DD[Ec][Ec] [DB]2 [CA]2 | [B,G]6 z2 |] %16
w: ||
w: ||
w: Un- der the a- ton- ing|blood.|
w: ||
V:2
 x8 | x8 | DD x6 | x8 | DD x6 | x8 | x8 | x8 || x8 | x8 | DD x6 | x8 | DD x6 | x8 | x8 | x8 |] %16
V:3
 [G,,B,][G,,B,][G,,B,][G,,B,] [G,,G,]2 [G,,G,]2 | [D,G,]2 [D,F,]2 [D,F,]4 | %2
 [D,F,][D,F,][D,A,][D,A,] [D,A,]2 [D,C]2 | [G,C]2 [G,B,]2 [G,B,]4 | %4
 [G,B,][G,B,][G,B,][G,C] [G,D]2 [G,B,]2 | [C,G,]2 [C,G,]2 (^C2 G,2) | %6
 [D,G,][D,G,][D,G,][D,B,] [D,C]2 [D,C]2 | [G,,B,]6 z2 || %8
 [G,,G,][G,,G,][G,,G,][G,,G,] [G,,G,]2 [G,,G,]2 | [D,G,]2 [D,F,]>[D,^E,] [D,F,]4 | %10
 [D,F,][D,F,][D,A,][D,A,] [D,A,]2 [D,C]2 | [G,C]2 [G,B,]>[G,^A,] [G,B,]4 | %12
 [G,B,][G,B,][G,B,][G,D] [G,B,]2 [G,D]2 | [C,C][C,C][C,C][B,,^G,] [A,,A,]2 [C,A,]2 | %14
 [D,B,][D,B,][C,G,][C,G,] [D,G,]2 [D,F,]2 | [G,,D,]6 z2 |] %16
V:4
 x8 | x8 | x8 | x8 | x8 | x4 ^C,4 | x8 | x8 || x8 | x8 | x8 | x8 | x8 | x8 | x8 | x8 |] %16

